X:1
T:Contrapunctus XVI
T:Contrapunctus XVI
T:J.S. Bach BWV 1080
T:Recorder trio
T:by Mutopia-2007/04/29-966
T:by Mutopia-2007/04/29-966
T:by Mutopia-2007/04/29-966
T:by Mutopia-2007/04/29-966
T:by Mutopia-2007/04/29-966
C:J.S. Bach
Z:by Mutopia-2007/04/29-966
%%score [ 1 2 3 ]
L:1/8
Q:1/4=110
M:2/2
K:F
V:1 treble nm="Recorder I"
V:2 treble nm="Recorder II"
V:3 bass nm="Recorder III"
V:1
 z2 | z8 | z8 | z8 | z8 | z8 | z8 | z8 | z4 z2 d2 | a2 A2- (3A=Bc (3Bcd | (3cde d2- (3def (3efg | %11
 (3fed e2- (3edc (3dc=B | c>ea>e c>=Bc>d | e4 z2 ^c2 | d2 f>e d2 c'2 | b2 d2 z2 =B2 | %16
 c2 e>d c2 _b2 | a3 g f>ec>f | B2 b2 g2 e2 | ^c3 d/e/ A>ef>g | a3 g (3fed e>b | %21
 (3agf (3g^ce (3gfe- e>f | (3efg (3fdA (3=B^cd (3cde | d2 f2 d2 A2 | B>dg>d B>GA>=B | %25
 c2 _e2 c2 G2 | A>cf>c A>FG>A | B2 b2- (3b_ag (3agf | (3gf_e f2- (3fed (3edc | d2 f2 d2 A2 | B8- | %31
 B8- | B4 z2 B2 | F2 f2- (3f_ed (3edc | (3dcB c2- (3cBA (3BAG | (3ABc B2- (3Bcd (3cd_e | %36
 d>BF>B d>_ed>c | (3BGA (3Bcd _e>dc>e | (3d_ef (3ege (3c=BA (3Bcd | (3cBA (3BGA (3Bcd (3_edc | %40
 (3dGB (3dBd g>^fg>a | b>gd>g b>c'b>a | g2 e2 g2 b2 | a>fc>f a>ba>g | f2 d2 f2 a2 | g2 d2 ^c2 z2 | %46
 z ^c/d/ e/f/g/a/ b2 z2 | (3z ea (3gfe (3fed (3^cde | f2 z2 z2 b2 | (3agf (3gaf g/f/ e2 f | %50
 e2 z2 z2 e2 | A2 z2 z2 A2 | B>dg>d B>GA>B | e2 z2 z2 =B2 | c>ea>e c>A_B>c | f2 z2 z2 c2 | %56
 d>fb>f d>Bc>d | g2 z2 z2 d2 | ^c2 z2 z z/ g/ f>e | !fermata!b4 z2 (3z b^c | d2- (3def Te2- (3ede | %61
 f2- (3fga g2- (3gfg | a8- | (3abc' (3bgd (3e^fg (3fga | (3gfe (3fed e2 z2 | z4 z2 d2 | %66
 A2 a2- (3agf (3gfe | (3fed e2- (3ed^c (3dc=B | (3^cde d2- (3def (3efg | f>dA>d f>gf>e | %70
 (3dcB c2- (3cBA (3Bcd | !fermata!A6 z2 |] %72
V:2
 a2 | d'2 d2- (3def (3efg | (3fga g2- (3gab (3abc' | (3bag a2- (3agf (3gfe | f>ad'>a (f>e)(f>g) | %5
 (3aeg (3fed ^c2 b2 | a2- (3agf g4- | g2- (3gfe f>d'd'>b | a4- a>ba>g | f2 z2 z2 f2 | %10
 (3efg (3feg (3fed (3^cde | d2 z2 z2 f2 | e2 c2 e2 a>=b | c'2 a2 c'2 e'2 | d'2 d2 z4 | %15
 z2 g2 b2 d'2 | c'2 c2 z4 | z8 | z8 | z4 z2 d2 | A2 a2- (3agf (3gfe | (3fed e2- (3ed^c (3dc=B | %22
 (3^cde d2- (3def (3efg | f>dA>d f>gf>e | d2 =e>^f g2 =f2 | _e>cG>c e>fe>d | c2 d>=e f2 _e2 | %27
 d>cB>c d>_ef>d | _e2- (3edc (3dcB (3cBA | (3Bbc' (3d'c'b f4- | (3fg_a (3gfa g2 d2 | %31
 (3_edc (3dec d2 g2 | (3fBd (3fdf b>=ef>g | (3abc' (3bc'd' f4- | f8- | f8- | f4 z2 d2 | %37
 g2 G2- (3GAB (3ABc | (3Bcd c2- (3cd_e (3def | (3_edc d2- (3dcB (3cBA | B>dg>d B>AB>c | %41
 d2 B2 d2 g>f | =e>gc'>g e>cd>e | f2 A2 c2 f>e | d>fb>f d>e^c>d | e4 z2 b2 | %46
 a2 z2 z z/ f'/ (3e'f'g' | ^c'2 z2 z2 e2 | A2 a2- (3agf (3gfe | (3fed e2- (3ed^c (3dc=B | %50
 (3^cde d2- (3def (3efg | f>dA>d f>gf>e | d2 b2 g2 d2 | g>f=B>e g>ag>f | e2 c'2 a2 e2 | %55
 a>gc>f a>ba>g | f4 z2 a2 | b>gd>g b>c'b>a | g2 z2 z z/ e/ f>g | !fermata!^c4 z2 e2 | %60
 (3fga (3bga (3=bab (3^c'bc' | (3d'fg (3agf (3ega (3bag | (3fdf (3afa (3d'^c'=b (3c'd'e' | d'8- | %64
 d'2- (3d'^c'=b c'2 z2 | (3z d'a (3faf (3dfa (3d'^c'=b | (3^c'ae (3^cde (3fed e>^c' | %67
 d'2- (3d'^c'=b (3c'd'e' (3f'e'd' | e'>g (3fed Tb4 | a2 z2 z z/ b/ a>g | (3fed a4 (3gab | %71
 !fermata!^f6 z2 |] %72
V:3
 z2 | z8 | z8 | z8 | z4 z2 D,2 | A,,2 A,2- (3A,G,F, (3G,F,E, | (3F,E,D, E,2- (3E,D,^C, (3D,C,=B,, | %7
 (3^C,D,E, D,2- (3D,E,F, (3E,F,G, | F,>D,A,,>D, F,>G,F,>E, | (3D,^C,=B,, (3C,D,E, F,2 ^G,,2 | %10
 A,,2 z2 z2 A,2- | A,2 (3^G,A,^F, TG,4 | A,8- | A,>E,C,>E, A,>B,A,>G, | F,>A,D>A, F,>D,E,>^F, | %15
 G,>D,B,,>D, G,>A,G,>F, | E,>G,C>G, E,>C,D,>F, | F,>G,F,>E, D,>E,F,>D, | G,>A,G,>F, E,>F,G,>E, | %19
 A,>B,A,>G, F,>E,D,>E, | F,>E,F,>G, A,2 ^C,2 | D,2 B,2 z2 ^G,2 | A,2 z2 z2 A,2 | D,2 z2 z2 D,2 | %24
 G,2 z2 z2 D,2 | C,2 z2 z2 C,2 | F,2 z2 z2 C,2 | G,2 z2 z4 | z4 z2 F,2 | %29
 B,2 B,,2- (3B,,C,D, (3C,D,_E, | (3D,_E,F, ^D,2- (3D,F,G, (3F,G,_A, | %31
 (3G,F,_E, F,2- (3F,E,D, (3E,D,C, | D,>F,B,>F, D,>C,D,>=E, | F,2 D,2 A,,>B,,C,>A,, | %34
 B,,2- (3B,,A,,G,, (3A,,B,,C, (3D,C,B,, | (3C,D,_E, (3D,E,C, (3D,C,B,, (3A,,B,,C, | %36
 B,,2 D,2 F,2 B,,2 | _E,2 z2 C,2 z2 | G,8- | G,8- | G,8- | G,4 z2 G,2 | C4 z2 G,2 | F,4 z2 F,2 | %44
 B,4 z2 F,2 | E,>G,B,>G, E,>F,E,>D, | ^C,E,G,E, C,>D,C,>=B,, | A,,>^C,E,>C, A,,>B,,A,,>G,, | %48
 (3F,,A,,D, (3F,E,D, T^C,3 (3C,/=B,,/C,/ | D,2 _B,2 z2 ^G,2 | A,>=G, (3F,G,A, B,>D, (3^C,D,E, | %51
 D,2 F,2 A,2 D,2 | G,2 z2 z2 G,2 | G,,2 G,2 =B,2 E,2 | A,2 z2 z2 A,2 | A,,2 A,2 C2 F,2 | %56
 B,2 D2 B,2 ^F,2 | G,2 B,2 G,2 D,2 | E,>G,B,>G, E,>^C,D,>E, | !fermata!G,,4 z2 G,2 | %60
 (3F,E,D, G,2- (3G,F,E, A,2 | D,2 z2 z2 G,2 | D2 D,2- (3D,E,F, (3E,F,G, | %63
 (3F,G,A, G,2- (3G,A,B, (3A,B,C | (3B,A,G, A,2- (3A,G,F, (3G,F,E, | F,>A,D>A, F,>E,F,>G, | A,8- | %67
 A,8- | A,2 B,2 G,2 ^C,2 | (3D,A,,D, (3F,D,F, A,2 A,,2 | D,2- (3D,^F,G, (3A,B,C D>D, | %71
 !fermata!D,6 z2 |] %72

